src/assets/icons/system/chat.svg

<svg viewBox="0 0 24 24" fill="none" xmlns="http://www.w3.org/2000/svg">
<g clip-path="url(#clip0_70_4739)">
<path d="M4 7C4 5.89543 4.89543 5 6 5H18C19.1046 5 20 5.89543 20 7V15C20 16.1046 19.1046 17 18 17H17.1085C16.4189 17 15.778 17.3552 15.4125 17.94L14.348 19.6432C13.9563 20.2699 13.0437 20.2699 12.652 19.6432L11.5875 17.94C11.222 17.3552 10.5811 17 9.8915 17H6C4.89543 17 4 16.1046 4 15V7Z" stroke="#111111"/>
<circle cx="9" cy="11" r="0.5" fill="#111111"/>
<circle cx="12" cy="11" r="0.5" fill="#111111"/>
<circle cx="15" cy="11" r="0.5" fill="#111111"/>
</g>
<defs>
<clipPath id="clip0_70_4739">
<rect width="24" height="24" fill="white"/>
</clipPath>
</defs>
</svg>

<svg viewBox="0 0 24 24" fill="none" xmlns="http://www.w3.org/2000/svg">
  <path stroke="currentColor"
    d="M4 7a2 2 0 0 1 2-2h12a2 2 0 0 1 2 2v8a2 2 0 0 1-2 2h-.892a2 2 0 0 0-1.696.94l-1.064 1.703a1 1 0 0 1-1.696 0l-1.064-1.703A2 2 0 0 0 9.892 17H6a2 2 0 0 1-2-2V7Z" />
  <g fill="currentColor">
    <circle cx="9" cy="11" r=".5" />
    <circle cx="12" cy="11" r=".5" />
    <circle cx="15" cy="11" r=".5" />
  </g>
</svg>
